svgs/light/hockey-stick-puck.svg

<svg xmlns="http://www.w3.org/2000/svg" viewBox="0 0 640 512"><!--! Font Awesome Pro 6.6.0 by @fontawesome - https://fontawesome.com License - https://fontawesome.com/license (Commercial License) Copyright 2024 Fonticons, Inc. --><path d="M503.3 1.8c7.8 4.1 10.9 13.7 6.9 21.6l-234.6 454c-11 21.3-32.9 34.6-56.9 34.6L56 512c-30.9 0-56-25.1-56-56l0-80c0-30.9 25.1-56 56-56l264.9 0L481.8 8.7c4.1-7.9 13.7-10.9 21.6-6.9zM304.4 352L128 352l0 128 90.8 0c12 0 22.9-6.7 28.4-17.3L304.4 352zM56 352c-13.3 0-24 10.7-24 24l0 80c0 13.3 10.7 24 24 24l40 0 0-128-40 0zm376 80c-8.8 0-16 7.2-16 16l0 16c0 8.8 7.2 16 16 16l160 0c8.8 0 16-7.2 16-16l0-16c0-8.8-7.2-16-16-16l-160 0zm-48 16c0-26.5 21.5-48 48-48l160 0c26.5 0 48 21.5 48 48l0 16c0 26.5-21.5 48-48 48l-160 0c-26.5 0-48-21.5-48-48l0-16z"/></svg>

<svg xmlns="http://www.w3.org/2000/svg" viewBox="0 0 640 512"><!--! Font Awesome Pro 6.4.2 by @fontawesome - https://fontawesome.com License - https://fontawesome.com/license (Commercial License) Copyright 2023 Fonticons, Inc. --><path d="M503.3 1.8c7.8 4.1 10.9 13.7 6.9 21.6l-234.6 454c-11 21.3-32.9 34.6-56.9 34.6H56c-30.9 0-56-25.1-56-56V376c0-30.9 25.1-56 56-56H320.9L481.8 8.7c4.1-7.9 13.7-10.9 21.6-6.9zM304.4 352H128V480h90.8c12 0 22.9-6.7 28.4-17.3L304.4 352zM56 352c-13.3 0-24 10.7-24 24v80c0 13.3 10.7 24 24 24H96V352H56zm376 80c-8.8 0-16 7.2-16 16v16c0 8.8 7.2 16 16 16H592c8.8 0 16-7.2 16-16V448c0-8.8-7.2-16-16-16H432zm-48 16c0-26.5 21.5-48 48-48H592c26.5 0 48 21.5 48 48v16c0 26.5-21.5 48-48 48H432c-26.5 0-48-21.5-48-48V448z"/></svg>
